packages/foundations/assets/icons/functional/images/devices/printer.svg

<svg xmlns="http://www.w3.org/2000/svg" width="32" height="32" fill="none"><path fill="#1A1C1F" fill-rule="evenodd" d="M9.27 2.154a1.96 1.96 0 0 0-1.171 1.272C8.016 3.693 8 3.924 8 4.885v1.142H6.278c-1.918 0-2.077.02-2.701.348-.654.344-1.159.949-1.429 1.714L2 8.507v10.986l.148.418c.342.968.98 1.605 1.941 1.938.415.144.429.145 2.164.167L8 22.037v3.105c0 2.68.012 3.145.085 3.395a2.07 2.07 0 0 0 1.235 1.339l.307.124h12.746l.307-.124a2.07 2.07 0 0 0 1.235-1.339c.073-.25.085-.715.085-3.395v-3.105l1.747-.021c1.735-.022 1.749-.023 2.164-.167a2.95 2.95 0 0 0 1.243-.789c.354-.37.519-.641.699-1.152l.147-.415V8.507l-.148-.418c-.27-.765-.775-1.37-1.429-1.714-.624-.328-.783-.348-2.701-.348H24V4.89c0-.882-.019-1.202-.085-1.427a2.03 2.03 0 0 0-1.224-1.326c-.293-.109-.349-.11-6.706-.109l-6.412.001zm12.703 2.859v1.014H10.027V4h11.946zm5.551 3.143c.105.071.249.215.32.32l.129.191v10.666l-.13.193c-.072.106-.214.25-.316.32-.185.127-.195.127-1.853.143l-1.667.015-.017-1.243-.017-1.244-.173-.351a2.22 2.22 0 0 0-1.015-.996l-.305-.143H9.52l-.305.143a2.22 2.22 0 0 0-1.015.996l-.173.351-.017 1.244-.017 1.243-1.667-.015c-1.663-.016-1.668-.016-1.855-.144a1.5 1.5 0 0 1-.316-.316l-.128-.188-.015-5.221c-.009-3.395.005-5.291.04-5.421.064-.24.384-.576.611-.642.095-.028 4.924-.044 11.417-.039l11.253.009zM8.56 10.111a.93.93 0 0 0-.486.536c-.169.445-.013.917.397 1.198l.188.128 2.244.016c1.925.013 2.275.003 2.461-.068.76-.289.845-1.379.138-1.776-.208-.117-.235-.118-2.496-.118-1.967 0-2.308.012-2.446.084m13.413 12.902V28H10.027v-9.973h11.946zm-9.308-2.957c-.203.06-.498.343-.593.569-.156.372-.028.876.292 1.146.092.077.288.166.437.198.374.08 6.026.079 6.401-.001.879-.189 1.078-1.301.324-1.811l-.193-.13-3.253-.01c-1.795-.005-3.326.012-3.415.039m0 4c-.203.06-.498.343-.593.569-.156.372-.028.876.292 1.146.092.077.288.166.437.198.374.08 6.026.079 6.401-.001.879-.189 1.078-1.301.324-1.811l-.193-.13-3.253-.01c-1.795-.005-3.326.012-3.415.039"/></svg>

<svg width="32" height="32" viewBox="0 0 32 32" fill="none" xmlns="http://www.w3.org/2000/svg"><path d="M9.270 2.154 C 8.685 2.395,8.284 2.829,8.099 3.426 C 8.016 3.693,8.000 3.924,8.000 4.885 L 8.000 6.027 6.278 6.027 C 4.360 6.027,4.201 6.047,3.577 6.375 C 2.923 6.719,2.418 7.324,2.148 8.089 L 2.000 8.507 2.000 14.000 L 2.000 19.493 2.148 19.911 C 2.490 20.879,3.128 21.516,4.089 21.849 C 4.504 21.993,4.518 21.994,6.253 22.016 L 8.000 22.037 8.000 25.142 C 8.000 27.822,8.012 28.287,8.085 28.537 C 8.263 29.146,8.708 29.629,9.320 29.876 L 9.627 30.000 16.000 30.000 L 22.373 30.000 22.680 29.876 C 23.292 29.629,23.737 29.146,23.915 28.537 C 23.988 28.287,24.000 27.822,24.000 25.142 L 24.000 22.037 25.747 22.016 C 27.482 21.994,27.496 21.993,27.911 21.849 C 28.422 21.672,28.794 21.436,29.154 21.060 C 29.508 20.690,29.673 20.419,29.853 19.908 L 30.000 19.493 30.000 14.000 L 30.000 8.507 29.852 8.089 C 29.582 7.324,29.077 6.719,28.423 6.375 C 27.799 6.047,27.640 6.027,25.722 6.027 L 24.000 6.027 24.000 4.890 C 24.000 4.008,23.981 3.688,23.915 3.463 C 23.737 2.853,23.279 2.357,22.691 2.137 C 22.398 2.028,22.342 2.027,15.985 2.028 L 9.573 2.029 9.270 2.154 M21.973 5.013 L 21.973 6.027 16.000 6.027 L 10.027 6.027 10.027 5.013 L 10.027 4.000 16.000 4.000 L 21.973 4.000 21.973 5.013 M27.524 8.156 C 27.629 8.227,27.773 8.371,27.844 8.476 L 27.973 8.667 27.973 14.000 L 27.973 19.333 27.843 19.526 C 27.771 19.632,27.629 19.776,27.527 19.846 C 27.342 19.973,27.332 19.973,25.674 19.989 L 24.007 20.004 23.990 18.761 L 23.973 17.517 23.800 17.166 C 23.592 16.744,23.211 16.369,22.785 16.170 L 22.480 16.027 16.000 16.027 L 9.520 16.027 9.215 16.170 C 8.789 16.369,8.408 16.744,8.200 17.166 L 8.027 17.517 8.010 18.761 L 7.993 20.004 6.326 19.989 C 4.663 19.973,4.658 19.973,4.471 19.845 C 4.368 19.774,4.226 19.632,4.155 19.529 L 4.027 19.341 4.012 14.120 C 4.003 10.725,4.017 8.829,4.052 8.699 C 4.116 8.459,4.436 8.123,4.663 8.057 C 4.758 8.029,9.587 8.013,16.080 8.018 L 27.333 8.027 27.524 8.156 M8.560 10.111 C 8.311 10.240,8.170 10.396,8.074 10.647 C 7.905 11.092,8.061 11.564,8.471 11.845 L 8.659 11.973 10.903 11.989 C 12.828 12.002,13.178 11.992,13.364 11.921 C 14.124 11.632,14.209 10.542,13.502 10.145 C 13.294 10.028,13.267 10.027,11.006 10.027 C 9.039 10.027,8.698 10.039,8.560 10.111 M21.973 23.013 L 21.973 28.000 16.000 28.000 L 10.027 28.000 10.027 23.013 L 10.027 18.027 16.000 18.027 L 21.973 18.027 21.973 23.013 M12.665 20.056 C 12.462 20.116,12.167 20.399,12.072 20.625 C 11.916 20.997,12.044 21.501,12.364 21.771 C 12.456 21.848,12.652 21.937,12.801 21.969 C 13.175 22.049,18.827 22.048,19.202 21.968 C 20.081 21.779,20.280 20.667,19.526 20.157 L 19.333 20.027 16.080 20.017 C 14.285 20.012,12.754 20.029,12.665 20.056 M12.665 24.056 C 12.462 24.116,12.167 24.399,12.072 24.625 C 11.916 24.997,12.044 25.501,12.364 25.771 C 12.456 25.848,12.652 25.937,12.801 25.969 C 13.175 26.049,18.827 26.048,19.202 25.968 C 20.081 25.779,20.280 24.667,19.526 24.157 L 19.333 24.027 16.080 24.017 C 14.285 24.012,12.754 24.029,12.665 24.056 " fill="#1A1C1F" stroke="none" fill-rule="evenodd"></path></svg>
